icons/git-repository-commits-fill.svg

<svg viewBox="0 0 24 24" fill="currentColor" xmlns="http://www.w3.org/2000/svg">
    <path d="M14 17V23H12V17H9L13 12L17 17H14ZM16 19H19V16H18.2L13 9.5L7.64706 16H6.5C5.67157 16 5 16.6716 5 17.5C5 18.3284 5.67157 19 6.5 19H10V21H6.5C4.567 21 3 19.433 3 17.5V5C3 3.34315 4.34315 2 6 2H20C20.5523 2 21 2.44772 21 3V20C21 20.5523 20.5523 21 20 21H16V19ZM7 5V7H9V5H7ZM7 8V10H9V8H7Z"/>
</svg>

<svg xmlns="http://www.w3.org/2000/svg" viewBox="0 0 24 24">
    <g>
        <path fill="none" d="M0 0h24v24H0z"/>
        <path fill-rule="nonzero" d="M14 17v6h-2v-6H9l4-5 4 5h-3zm2 2h3v-3h-.8L13 9.5 7.647 16H6.5a1.5 1.5 0 0 0 0 3H10v2H6.5A3.5 3.5 0 0 1 3 17.5V5a3 3 0 0 1 3-3h14a1 1 0 0 1 1 1v17a1 1 0 0 1-1 1h-4v-2zM7 5v2h2V5H7zm0 3v2h2V8H7z"/>
    </g>
</svg>
